!!!OTL: Salue Deus salue homo
**kern
*staff1
=--
*clefC1
*k[b-]
*met(c)
*M4/4
1f
2a
2b-
=-
2.cc
4b-
2cc
1dd
1cc
2b-
1cc
=-
!!linebreak:original
2r
2cc
2cc
2cc
=-
1dd
2cc
1b-
1a
2g
=-
2a
2a
2a
2g
=-
1b-
2a
2.g
4f
1f
2e
=-
0f
=-=
*-
!!title: @{OTL}, @{GTL}, ed. @{ENC}
!!!pag:
!!!GTL: Hymnbook C
!!!EFL: 
!!!YEM: Creative Commons CC/BY/NC/SA 4.0
!!!ENC: Marcin Konik
!!!END: 2015-0m-dd
!!!EED: Marcin Konik
!!!EEV: 
!!!ONB: Encoded in vim by Marcin Konik
!!!CharacterEncoding: utf-8
!!!RDF**kern: l=long note in original notation
!!!RDF**kern: i=editorial accidental
!!muse2ps: z14jc180F
!!!COM: Anonim
!!!CDT: [?]
!!!TXO: Polish
!!!ODT: 
!!!GTL: Hymnbook C
!!!ARL: Opactwo św. Wojciecha, Staniątki 
!!!voices:	1
